!!!COM: Palestrina, Giovanni Perluigi da
!!!OPR: Missa In te Domine speravi (1593-4)
!!!OMD: Credo
!!!OTL: First Section
**kern	**kern	**kern	**kern
*Ibass	*Itenor	*Icalto	*Icant
!Bassus	!Tenor	!Altus	!Cantus
*clefF4	*clefGv2	*clefG2	*clefG2
*k[]	*k[]	*k[]	*k[]
*D:dor	*D:dor	*D:dor	*D:dor
*M4/2	*M4/2	*M4/2	*M4/2
=1	=1	=1	=1
1r	1A	0r	0r
1D	2A	.	.
.	2A	.	.
=2	=2	=2	=2
2D	2d	0r	0r
2D	2d	.	.
2A	2.c	.	.
2A	.	.	.
.	4d	.	.
=3	=3	=3	=3
2G	4e	2r	0r
.	4d	.	.
4F	2.f	2d	.
4E	.	.	.
4D	.	2d	.
4E	4e	.	.
4F	[2d	2d	.
4G	.	.	.
=4	=4	=4	=4
1E	2d]	1g	1r
.	2c#	.	.
2D	1d	2.f	1a
2d	.	.	.
.	.	4e	.
=5	=5	=5	=5
2d	0r	4f	2a
.	.	4g	.
2c	.	1a	2a
1B	.	.	1dd
.	.	2g#	.
=6	=6	=6	=6
1A	2r	2.a	2.cc
.	2A	.	.
.	.	4g	4b
1r	2A	2f	4cc
.	.	.	4dd
.	2A	2e	[2ee
=7	=7	=7	=7
1D	1d	1f	2ee]
.	.	.	2dd
[1A	2.c	[1e	2.ee
.	4B	.	4dd
=8	=8	=8	=8
2A]	4c	1e]	2cc
.	4d	.	.
2G	1e	.	2b
1F	.	2r	1a
.	2d	[2a	.
=9	=9	=9	=9
1E	1e	2a]	2r
.	.	2g#	1ee
1r	1A	2a	.
.	.	2cc	2cc
=10	=10	=10	=10
0r	0r	2b	2dd
.	.	2.a	2ff
.	.	.	2ee
.	.	4g	.
.	.	4f	[2dd
.	.	4e	.
=11	=11	=11	=11
2r	1r	2f	4dd]
.	.	.	4cc
1A	.	2f	4cc
.	.	.	8b
.	.	.	8a
.	2r	1e	2b
2G#	[2e	.	2b
=12	=12	=12	=12
2A	2e]	2r	1ee
2c	2c	2a	.
2B	2d	2g	1r
2A	2f	2a	.
=13	=13	=13	=13
2A	2e	2cc	0r
4G	2e	2.b	.
8F	.	.	.
8E	.	.	.
1F	4d	.	.
.	4c	4a	.
.	4c	[2a	.
.	8B	.	.
.	8A	.	.
=14	=14	=14	=14
1E	1B	2a]	2r
.	.	2g#	1ee
2r	1A	1a	.
[2A	.	.	2cc#
=15	=15	=15	=15
2A]	2.e	2.a	1cc#
2A	.	.	.
.	4e	4a	.
2d	2f#	2a	1dd
2d	2f#	2b	.
=16	=16	=16	=16
1.c	1.g	1.cc	1.ee
2G	2g	2b	2dd
=17	=17	=17	=17
1G	1g	1b	1dd
1F	1a	1cc	1ff
=18	=18	=18	=18
1A	1a	1cc	1ee
1c	1g	1cc	1ee
=19	=19	=19	=19
1G	0g	0b	0dd
2.G	.	.	.
4F	.	.	.
=20	=20	=20	=20
1E	2.g	2.b	2r
.	.	.	2.ee
.	4f	4a	.
1r	2e	2g	.
.	.	.	4dd
.	[2f	[2a	2cc
=21	=21	=21	=21
0r	2f]	2a]	1dd
.	2d	2f	.
.	2.e	2.g	2b
.	.	.	[2cc
.	4d	4f	.
=22	=22	=22	=22
1r	2c	2e	4cc]
.	.	.	4b
.	2d	2f	1a
2r	1B	1d	.
[2d	.	.	2g#
=23	=23	=23	=23
2d]	1A	2r	1a
2c#	.	1a	.
1d	1f	.	2r
.	.	2a	[2dd
=24	=24	=24	=24
1A	1e	2a	2dd]
.	.	2a	2cc#
[1d	2f#	1a	2dd
.	2f#	.	2a
=25	=25	=25	=25
1d]	1f#	1a	1dd
1G	2g	2r	2b
.	[2g	[2b	[2dd
=26	=26	=26	=26
0r	2g]	2b]	2dd]
.	2f#	2a	2dd
.	2g	2b	2dd
.	2c	2cc	2ee
=27	=27	=27	=27
0r	2.g	2.b	2dd
.	.	.	2.gg
.	4f	4a	.
.	4e	1g	.
.	4d	.	4ff
.	4c	.	4ee
.	4B	.	4dd
=28	=28	=28	=28
0r	2A	2a	2cc
.	1a	2d	2dd
.	.	2e	1b
.	2g#	2e	.
=29	=29	=29	=29
1d	1a	2f	2r
.	.	2f	2a
2G	2r	1g	2b
2B	2d	.	2b
=30	=30	=30	=30
1A	2e	1a	1cc#
.	2e	.	.
1d	1f#	2r	1dd
.	.	2a	.
=31	=31	=31	=31
1G	1g	2b	2r
.	.	1g	2b
2c	1e	.	2cc
2A	.	[2a	2cc
=32	=32	=32	=32
2d	2f	2a]	2dd
2d	2f	2b	2dd
1c	2g	2cc	1ee
.	2g	2c	.
=33	=33	=33	=33
1A	1a	1e	2r
.	.	.	2cc
1d	2r	4f	1dd
.	.	4g	.
.	2f	4a	.
.	.	4b	.
=34	=34	=34	=34
1c	1g	1cc	1ee
2A	1a	2c	2ee
2A	.	2c	2ee
=35	=35	=35	=35
1F	2a	2.f	2dd
.	2a	.	2cc
.	.	8e	.
.	.	8d	.
1G	2g	2e	1b
.	2f	[2d	.
=36	=36	=36	=36
1A	1e	2d]	[0a
.	.	2c#	.
1D	2d	2d	.
.	[2f	[2d	.
=37	=37	=37	=37
1A	2f]	2d]	0a]
.	2e	2c	.
1r	2f	2d	.
.	2c	2e	.
=38	=38	=38	=38
0r	1d	1f	2r
.	.	.	1dd
.	2A	2e	.
.	[2f	[2a	2cc
=39	=39	=39	=39
0r	2f]	2a]	2dd
.	2e	2g	2ee
.	2d	2a	1ff
.	2d	2b	.
=40	=40	=40	=40
0r	4A	1cc	2ee
.	4B	.	.
.	4c	.	1a
.	4d	.	.
.	2e	1b	.
.	2e	.	2g#
=41	=41	=41	=41
1r	2f	2a	2a
.	4e	2g#	2b
.	4d	.	.
[1A	2.e	1a	2.cc
.	4d	.	4b
=42	=42	=42	=42
2A]	4e	0r	4cc
.	4f	.	4dd
2G	4g	.	1ee
.	4e	.	.
2A	1f	.	.
2B	.	.	2dd
=43	=43	=43	=43
2c	1e	2r	2ee
2A	.	1a	2cc
1B-	2r	.	1dd
.	[2d	2g	.
=44	=44	=44	=44
2A	2d]	2f	0r
2A	2c	2e	.
2G	2B	2g	.
[2F	2A	[2a	.
=45	=45	=45	=45
4F]	2c	4a]	1r
4E	.	4g	.
2D	1d	2f	.
2A	.	1e	2r
2A	2c#	.	2ee
=46	=46	=46	=46
2D	1d	2d	2ff
2d	.	2a	2ff
2A	1r	2cc	1ee
2c	.	2cc	.
=47	=47	=47	=47
4G	2r	1b	1.dd
4A	.	.	.
4B	2d	.	.
4c	.	.	.
1d	2f	[1a	.
.	2f	.	2dd
=48	=48	=48	=48
2A	1e	2a]	1cc
2A	.	2a	.
[1D	[1d	2.f	2r
.	.	.	2dd
.	.	4g	.
=49	=49	=49	=49
1D]	2d]	2a	2ff
.	2d	2a	2ff
1r	1c	2cc	1ee
.	.	2cc	.
=50	=50	=50	=50
1r	2r	1b	2dd
.	2d	.	1dd
2r	2f	2a	.
2A	2f	2a	[2cc
=51	=51	=51	=51
2c	1e	2g	4cc]
.	.	.	4b
2c	.	2c	1a
1B	1d	2r	.
.	.	2d	2g#
=52	=52	=52	=52
2A	1e	2d	1a
2A	.	2c	.
1D	2.d	1f	2r
.	.	.	2a
.	4c	.	.
=53	=53	=53	=53
1E	1B	1e	2a
.	.	.	2g
2r	2.A	2c	2.cc
2A	.	[2cc	.
.	4B	.	4dd
=54	=54	=54	=54
2A	2c	2cc]	4ee
.	.	.	4ff
2G	2d	4b	4gg
.	.	4a	4ff
1c	1e	2g	4ee
.	.	.	4dd
.	.	[2a	2cc
=55	=55	=55	=55
1B	2r	2a]	2.dd
.	2d	2g#	.
.	.	.	4ee
[1A	2d	[1a	2ff
.	2c	.	[2ee
=56	=56	=56	=56
0A]	1f	0a]	2ee]
.	.	.	1dd
.	1e	.	.
.	.	.	2cc#
=57	=57	=57	=57
1r	1d	0a	1dd
1d	1f#	.	1dd
=58	=58	=58	=58
1G	1g	1b-	1dd
1A	1e	1a	1cc
=59	=59	=59	=59
1F	2.f	1a	1cc
.	4e	.	.
1G	4d	1g	1b-
.	4c	.	.
.	[2d	.	.
=60	=60	=60	=60
1A	2d]	1e	1a
.	2c#	.	.
2r	2c#	2r	2r
[2A	[2e	[2a	[2cc#
=61	=61	=61	=61
2A]	2e]	2a]	2cc#]
1d	1f#	1a	1dd
2G	2g	2b	2dd
=62	=62	=62	=62
1A	1e	1a	1cc#
1d	1f	1a	1dd
=63	=63	=63	=63
2c	2g	0cc	[0ee
1A	1c	.	.
2G#	2B	.	.
=64	=64	=64	=64
2A	2c	1r	1ee]
2G#	2B	.	.
2A	2.c	[1a	2r
2F	.	.	[2cc
.	4d	.	.
=65	=65	=65	=65
1E	1e	2a]	2cc]
.	.	2g#	2b
1r	1r	2a	2cc
.	.	2g#	2b
=66	=66	=66	=66
1r	2r	2a	2cc
.	1d	2f	2dd
[1A	.	1e	1ee
.	4c#	.	.
.	4B	.	.
=67	=67	=67	=67
1A]	1c#	1a	1ee
1D	1d	1a	1ff
=68	=68	=68	=68
0A	1c	2a	2.ee
.	.	4A	.
.	.	4B	4dd
.	[1e	4c	4cc
.	.	4d	4b
.	.	4e	[2cc
.	.	4f	.
=69	=69	=69	=69
1G	2e]	1g	2cc]
.	4d	.	1b
.	4c	.	.
1D	2.d	1f	.
.	.	.	[2a
.	4c	.	.
=70	=70	=70	=70
0E	1B	[0e	2a]
.	.	.	4g#
.	.	.	4f#
.	1B	.	1g#
=71	=71	=71	=71
0A	0c#	0e]	0a
*-	*-	*-	*-
!!!CDT: 1525/^1526/-1594/2/2
!!!OCY: Italia
!!!AGN: Mass (Parody)
!!!AST: renaissance, vocal
!!!ASW: Motet (?Lhéritier)
!!!PWK: Masses, Book 6
!!!RNB: Cadence finals: A
!!!YOR: Le Opere Complete, v. 21, p. 26
!!!YOO: Rome, Italy: Fratelli Scalera
!!!END: 1992//
!!!EED: John Miller
!!!YEC: Copyright 2000, John Miller
!!!YEN: United States of America
!!!YEM: Rights to all derivative electronic formats reserved.
!!!YEM: Refer to licensing agreement for further details.
!!!YEM: This file must be accompanied by the licensing agreement.
!!!YEM: A copy of the licensing agreement may be found at http://www.music-cog.ohio-state.edu/HumdrumDatabases/Palestrina/license.txt
!!!EMD: converted to Humdrum by Bret Aarden
